X:1267
T:Scatter the Mud
T:The maid of Tranmore
T:The White Crow
C:anon.
O:Ireland
S:Based on various versions posted on Internet, mainly a transcription by John Walsh
R:Jig
Z:Transcribed by Frank Nordberg - http://www.musicaviva.com
F:http://abc.musicaviva.com/tunes/ireland/scatter-the-mud.abc
%Posted September 19th 2000 at abcusers by Frank Nordberg.
M:6/8
L:1/8
K:Ador
"Am"eAA "G"BAA|"Am"eAA "Em"ABd|"Am"eAA BAB|"G"dBG GBd|\
"Am"eAA BAA|"Am"eAA AGE|"Em"GAB d2e|[1"G"dBA "Am"ABd:|[2"G"dBA "Am"A3||
|:"Am"aba "G"g2e|"G"dBG GBd|"Am"aba "Em"g2e|"G"dBd e3|\
"Am"aba "G"g2e|"G"dBG AGE|"Em"GAB d2e|[1"G"dBA "Am"ABd:|[2"G"dBA "Am"A3|]
W:
W:
W:  From Musica Viva - http://www.musicaviva.com
W:  the Internet center for free sheet music downloads.
